X: 12
T: FOX HUNTER'S JIG
R: jig
Z: 2006 John Chambers <jc@trillian.mit.edu>
B: "Rinnci na h-\'Eireann" Elizabeth Burchenal, ed. G.Schirmer (1925) p.92
M: 9/8
L: 1/8
Q: 3/8=112
K: D
|:  "D"F3 F3 "G"G3  |  "D"F3  F3 "A"E2D | "D"F3     F3  "G"G2B | "D"AFD D2F "G"E2"D"D :|
|: "Em"B3 BAG   FGA | "A7"B2E E2F   G2B | "D"ABc "G"dcB "D"ABc | "D"d2D D2F "G"E2"D"D :|
    "D"f3 f3 "G"e2d |  "D"f3  f3 "G"e2d | "D"f3     f3  "G"g2b | "D"afd d2f "G"e2"D"d |]
   "Em"B3 BAG   FGA | "A7"B2E E2F   G2B | "D"ABc "G"dcB "D"ABc | "D"d2D D2F "G"E2"D"D |]

%%sep 2 1 500

